icons/midnadark/apps/48/eagle.svg

<?xml version="1.0" encoding="UTF-8" standalone="no"?>
<svg
   xmlns:osb="http://www.openswatchbook.org/uri/2009/osb"
   xmlns:dc="http://purl.org/dc/elements/1.1/"
   xmlns:cc="http://creativecommons.org/ns#"
   xmlns:rdf="http://www.w3.org/1999/02/22-rdf-syntax-ns#"
   xmlns:svg="http://www.w3.org/2000/svg"
   xmlns="http://www.w3.org/2000/svg"
   xmlns:xlink="http://www.w3.org/1999/xlink"
   xmlns:sodipodi="http://sodipodi.sourceforge.net/DTD/sodipodi-0.dtd"
   xmlns:inkscape="http://www.inkscape.org/namespaces/inkscape"
   id="svg2408"
   height="48"
   width="48"
   version="1.0"
   inkscape:version="0.91 r13725"
   sodipodi:docname="eagle.svg">
  <sodipodi:namedview
     pagecolor="#ffffff"
     bordercolor="#666666"
     borderopacity="1"
     objecttolerance="10"
     gridtolerance="10"
     guidetolerance="10"
     inkscape:pageopacity="0"
     inkscape:pageshadow="2"
     inkscape:window-width="1366"
     inkscape:window-height="685"
     id="namedview33"
     showgrid="false"
     inkscape:zoom="6.9532167"
     inkscape:cx="19.325884"
     inkscape:cy="30.855342"
     inkscape:window-x="0"
     inkscape:window-y="0"
     inkscape:window-maximized="1"
     inkscape:current-layer="svg2408" />
  <defs
     id="defs2410">
    <linearGradient
       gradientTransform="scale(1.0058652,0.994169)"
       gradientUnits="userSpaceOnUse"
       id="ButtonShadow"
       y2="7.0165396"
       x2="45.447727"
       y1="92.539597"
       x1="45.447727">
      <stop
         offset="0"
         style="stop-color:#000000;stop-opacity:1"
         id="stop3750" />
      <stop
         offset="1"
         style="stop-color:#000000;stop-opacity:0.58823532"
         id="stop3752" />
    </linearGradient>
    <filter
       id="filter3174"
       color-interpolation-filters="sRGB">
      <feGaussianBlur
         stdDeviation="1.71"
         id="feGaussianBlur3176" />
    </filter>
    <linearGradient
       gradientUnits="userSpaceOnUse"
       y2="-26.047026"
       x2="-125.19291"
       y1="73.496605"
       x1="-123.9715"
       id="linearGradient4738-6-8-3"
       xlink:href="#linearGradient5076"
       gradientTransform="matrix(1.0345816,0,0,1,4.3816956,-7.2895463e-7)" />
    <linearGradient
       id="linearGradient4207"
       osb:paint="gradient">
      <stop
         style="stop-color:#3498db;stop-opacity:1;"
         offset="0"
         id="stop3371" />
      <stop
         style="stop-color:#3498db;stop-opacity:0;"
         offset="1"
         id="stop3373" />
    </linearGradient>
    <linearGradient
       id="linearGradient5076">
      <stop
         id="stop5078"
         offset="0"
         style="stop-color:#c52828;stop-opacity:1" />
      <stop
         id="stop5080"
         offset="1"
         style="stop-color:#ff5454;stop-opacity:1" />
    </linearGradient>
  </defs>
  <metadata
     id="metadata2413">
    <rdf:RDF>
      <cc:Work
         rdf:about="">
        <dc:format>image/svg+xml</dc:format>
        <dc:type
           rdf:resource="http://purl.org/dc/dcmitype/StillImage" />
        <dc:title></dc:title>
      </cc:Work>
    </rdf:RDF>
  </metadata>
  <g
     transform="translate(0,-48)"
     style="display:none"
     id="layer2">
    <rect
       style="opacity:0.9;fill:url(#ButtonShadow);fill-opacity:1;fill-rule:nonzero;stroke:none;filter:url(#filter3174)"
       id="rect3745"
       y="7"
       x="5"
       ry="6"
       rx="6"
       height="85"
       width="86" />
  </g>
  <g
     id="g4338">
    <g
       id="g10733"
       transform="matrix(0.47780364,0,0,0.47780364,-76.049248,-55.019034)">
      <g
         id="g10038-3"
         transform="translate(55.951895,-3.5355355)">
        <g
           transform="translate(144.24978,3.5355355)"
           id="g9928-9-3">
          <g
             id="g9602-6-4-6"
             transform="translate(135.91204,142.57098)">
            <path
               id="rect4177-3-1-1"
               d="m -170.49274,-27.421096 87.545249,0 c 3.577037,0 6.45772,2.783453 6.457683,6.240925 l -9.38e-4,87.977829 c -3.7e-5,3.457472 -2.879708,6.240925 -6.456745,6.240925 l -87.545249,0 c -3.57703,0 -6.45675,-2.783453 -6.45675,-6.240925 l 0,-87.977829 c 0,-3.457472 2.87972,-6.240925 6.45675,-6.240925 z"
               style="opacity:1;fill:url(#linearGradient4738-6-8-3);fill-opacity:1.0;fill-rule:evenodd;stroke:none;stroke-width:8;stroke-linecap:round;stroke-linejoin:round;stroke-miterlimit:4;stroke-dasharray:none;stroke-dashoffset:0;stroke-opacity:1"
               inkscape:connector-curvature="0" />
          </g>
        </g>
      </g>
    </g>
  </g>
  <g
     transform="matrix(0.87977541,0,0,0.87977541,-48.194897,5.5269222)"
     id="g4224">
    <g
       id="g33" />
    <g
       id="g4526"
       transform="matrix(1.2076932,0,0,1.2076932,-108.52104,-27.941761)">
      <g
         transform="matrix(0.06591572,0,0,0.06591572,140.97403,41.31628)"
         id="g3"
         style="fill:#ffffff;fill-opacity:0.83589745">
        <g
           id="g5"
           transform="matrix(2.2355455,0,0,2.2355455,-7.0737279e-5,-267.39676)"
           style="fill:#ffffff;fill-opacity:0.83589745">
          <path
             style="fill:#fae1e1;fill-opacity:1"
             d="M 6.9394531 8 C 5.9594986 11.131189 5.2801934 15.390207 8.3847656 18.757812 C 11.49059 22.126983 16.591739 22.895296 17.005859 24.330078 C 19.080376 23.913453 21.607422 24.441406 21.607422 24.441406 C 21.607422 24.441406 20.173528 20.444337 17.005859 17.070312 C 13.838034 13.698167 10.106339 12.185669 6.9394531 8 z M 41.4375 8.9609375 C 41.4375 8.9609375 30.879461 12.427373 27.675781 16.615234 C 24.470849 20.802469 25.490133 23.400848 23.265625 24.910156 C 22.3436 25.536112 20.253294 24.758989 18.550781 24.833984 C 17.184262 24.896298 15.572978 25.20673 14.681641 26.396484 C 14.232449 26.995667 14.290625 27.396809 14.251953 27.853516 C 13.535345 29.224575 14.025391 30.001953 14.025391 30.001953 C 14.025391 30.001953 14.413486 29.209136 15.044922 29.25 C 15.676827 29.286324 16.058477 29.329003 16.462891 29.28125 C 16.866991 29.231148 17.1263 28.792314 17.833984 28.845703 C 18.611028 28.900971 19.573686 29.493207 19.605469 30.609375 C 19.657293 32.351812 18.153902 33.638433 18.271484 34.373047 C 18.3994 35.16559 18.213986 35.420145 18.097656 35.734375 C 17.932634 36.181061 15.302462 34.711957 14.666016 35.828125 C 14.882392 35.782407 15.466412 35.819127 15.810547 35.941406 C 15.428053 36.112065 15.244841 36.354662 15.246094 36.675781 C 15.599936 36.294227 16.305135 36.43353 16.546875 36.464844 C 16.137608 36.577259 15.958227 36.998826 15.869141 37.154297 C 16.887141 36.688666 18.428504 37.172152 18.78125 37.960938 C 19.177522 37.323552 18.910156 36.525391 18.910156 36.525391 C 18.910156 36.525391 19.192448 36.165973 19.757812 36.148438 C 19.588407 36.718186 19.810343 36.876679 19.833984 37.166016 C 19.856217 37.454099 19.518526 38.170473 19.205078 38.361328 C 18.890065 38.547487 17.298772 38.342324 16.902344 39.277344 C 17.140483 39.123595 17.990194 38.908185 18.203125 38.994141 C 17.948703 39.107182 17.723495 39.320382 17.695312 39.787109 C 18.147009 39.277013 19.052205 39.241997 19.236328 39.335938 C 19.123756 39.462757 18.868532 39.534526 18.783203 40 C 19.335259 39.688118 20.422771 39.094428 21.753906 39.646484 C 21.667951 38.839537 20.707031 38.628906 20.707031 38.628906 C 20.707031 38.628906 20.579173 37.382997 21.642578 37.214844 C 22.270256 37.113858 23.37899 34.856447 23.916016 34.720703 C 24.453511 34.587621 24.594798 35.194208 24.501953 35.507812 C 24.408013 35.819694 23.265625 37.546875 23.265625 37.546875 C 23.265625 37.546875 25.227482 39.280938 28.205078 39.396484 C 31.186119 39.515789 33.257812 37.628906 33.257812 37.628906 C 33.257812 37.628906 30.922953 35.777663 28.925781 34.193359 C 26.928766 32.60655 27.378906 30.173828 27.378906 30.173828 C 27.378906 30.173828 30.090984 30.180195 31.070312 28.15625 C 33.482857 23.178194 39.667029 24.124432 41.441406 16.732422 C 42.439836 12.547692 41.4375 8.9609375 41.4375 8.9609375 z "
             transform="matrix(6.3870313,0,0,6.3870313,-39.061107,-39.061254)"
             id="path7" />
        </g>
      </g>
    </g>
    <g
       transform="matrix(1.4999999,0,0,1.4999999,-1128.9075,-261.31068)"
       id="layer1">
      <g
         transform="matrix(0.92857143,0,0,0.92857143,54.918368,13.566686)"
         id="g4418">
        <g
           transform="translate(-32.363802,12.463785)"
           id="g4175" />
      </g>
    </g>
  </g>
</svg>

<svg xmlns="http://www.w3.org/2000/svg" viewBox="0 0 48 48"><defs><filter color-interpolation-filters="sRGB"><feGaussianBlur stdDeviation="1.71"/></filter><linearGradient gradientTransform="scale(1.0059.99417)" gradientUnits="userSpaceOnUse" y2="7.02" x2="0" y1="92.54"><stop/><stop offset="1" stop-opacity=".588"/></linearGradient><linearGradient gradientUnits="userSpaceOnUse" y2="-26.05" x2="-125.19" y1="73.5" x1="-123.97" id="0" gradientTransform="matrix(1.03458 0 0 1 4.382 0)"><stop stop-color="#c52828"/><stop offset="1" stop-color="#ff5454"/></linearGradient></defs><path d="m-170.49-27.421h87.55c3.577 0 6.458 2.783 6.458 6.241v87.978c0 3.457-2.88 6.241-6.457 6.241h-87.55c-3.577 0-6.457-2.783-6.457-6.241v-87.978c0-3.457 2.88-6.241 6.457-6.241" fill="url(#0)" fill-rule="evenodd" transform="matrix(.4778 0 0 .4778 84.55 13.1)"/><path d="m6.939 8c-.98 3.131-1.659 7.39 1.445 10.758 3.106 3.369 8.207 4.137 8.621 5.572 2.075-.417 4.602.111 4.602.111 0 0-1.434-3.997-4.602-7.371-3.168-3.372-6.9-4.885-10.07-9.07m34.498.961c0 0-10.558 3.466-13.762 7.654-3.205 4.187-2.186 6.786-4.41 8.295-.922.626-3.01-.151-4.715-.076-1.367.062-2.978.373-3.869 1.563-.449.599-.391 1-.43 1.457-.717 1.371-.227 2.148-.227 2.148 0 0 .388-.793 1.02-.752.632.036 1.014.079 1.418.031.404-.05.663-.489 1.371-.436.777.055 1.74.648 1.771 1.764.052 1.742-1.452 3.03-1.334 3.764.128.793-.057 1.047-.174 1.361-.165.447-2.795-1.022-3.432.094.216-.046.8-.009 1.145.113-.382.171-.566.413-.564.734.354-.382 1.059-.242 1.301-.211-.409.112-.589.534-.678.689 1.018-.466 2.559.018 2.912.807.396-.637.129-1.436.129-1.436 0 0 .282-.359.848-.377-.169.57.053.728.076 1.018.022.288-.315 1-.629 1.195-.315.186-1.906-.019-2.303.916.238-.154 1.088-.369 1.301-.283-.254.113-.48.326-.508.793.452-.51 1.357-.545 1.541-.451-.113.127-.368.199-.453.664.552-.312 1.64-.906 2.971-.354-.086-.807-1.047-1.018-1.047-1.018 0 0-.128-1.246.936-1.414.628-.101 1.736-2.358 2.273-2.494.537-.133.679.474.586.787-.094.312-1.236 2.039-1.236 2.039 0 0 1.962 1.734 4.939 1.85 2.981.119 5.05-1.768 5.05-1.768 0 0-2.335-1.851-4.332-3.436-1.997-1.587-1.547-4.02-1.547-4.02 0 0 2.712.006 3.691-2.02 2.413-4.978 8.597-4.03 10.371-11.424.998-4.185-.004-7.771-.004-7.771" fill="#fae1e1" fill-opacity=".836"/></svg>
